rospo-icon-theme-classic-common/24x24/devices/gnome-dev-wavelan.svg

<svg height="24" width="24" xmlns="http://www.w3.org/2000/svg" xmlns:xlink="http://www.w3.org/1999/xlink"><clipPath id="a"><path d="m160 247c-7.9134 0-15.037 2.8117-20.945 7.1718l20.94 22.82 20.78-22.9c-5.88-4.31-12.93-7.09-20.78-7.09z"/></clipPath><filter id="b" color-interpolation-filters="sRGB" height="1.288" width="1.205" x="-.1" y="-.14"><feGaussianBlur stdDeviation="1.443"/></filter><clipPath id="c"><path d="m160 247c-7.9134 0-15.037 2.8117-20.945 7.1718l20.94 22.82 20.78-22.9c-5.88-4.31-12.93-7.09-20.78-7.09z"/></clipPath><filter id="d" color-interpolation-filters="sRGB" height="1.385" width="1.274" x="-.14" y="-.19"><feGaussianBlur stdDeviation="1.443"/></filter><path d="m12.039111 5.500094c-3.7929574 0-7.2073578 1.3124767-10.039111 3.3477327l10.039111 10.6521733 9.960505-10.6899834c-2.820729-2.0128034-6.196976-3.3098292-9.960505-3.3098292z" opacity=".2"/><path d="m12.039111 5c-3.7929574 0-7.2073578 1.3124767-10.039111 3.3477327l10.039111 10.6521733 9.960505-10.6899834c-2.820729-2.0128034-6.196976-3.3098292-9.960505-3.3098292z" fill="#4f4f4f"/><path clip-path="url(#a)" d="m159.9 252.99c-6.3037 0-12.154 2.0674-16.853 5.5589l16.941 18.441 16.765-18.441c-4.71-3.49-10.56-5.56-16.86-5.56z" filter="url(#b)" opacity=".2" transform="matrix(.47930826 0 0 .46679113 -64.641583 -110.29844)"/><path d="m11.999808 7.7969192c-3.0214152 0-5.8255123.9650439-8.0777818 2.5948448l8.1199608 8.608096 8.035603-8.608562c-2.252269-1.6295682-5.056223-2.5944255-8.077782-2.5944255z" fill="#797979"/><path clip-path="url(#c)" d="m159.9 258.99c-4.7278 0-9.1156 1.5505-12.64 4.1692l12.706 13.831 12.574-13.831c-3.524-2.6186-7.9119-4.1692-12.64-4.1692z" filter="url(#d)" opacity=".2" transform="matrix(.47930826 0 0 .46679113 -64.641583 -110.29844)"/><path d="m11.999808 10.597666c-2.2660733 0-4.3691821.72376-6.0584561 1.946145l6.0900901 6.456189 6.026822-6.456189c-1.689082-1.222525-3.792286-1.946052-6.058456-1.946052z" fill="#e4e4e4"/><g fill="#fff"><path d="m12.039111 5c-3.7929574 0-7.2073578 1.3125234-10.039111 3.3477793l.2696109.2862737c2.7788376-1.9283141 6.0939253-3.1672712 9.7697401-3.1672712 3.647104 0 6.925525 1.2241131 9.692092 3.1307682l.268413-.2880102c-2.821688-2.0123365-6.197456-3.3093623-9.961464-3.3093623z" opacity=".1"/><path d="m12.000287 7.7964523c-3.0214149 0-5.8259913.9657909-8.0782608 2.5956387l.2705455.286274c2.2053452-1.5162778 4.9038028-2.4150842 7.8074523-2.4150842 2.904847 0 5.602634.8997399 7.808411 2.4169042l.268892-.288477c-2.251791-1.6300342-5.055265-2.5958251-8.076824-2.5958251z" opacity=".1"/><path d="m12.000287 10.597199c-2.266073 0-4.3696611.724133-6.0589351 1.946472l.2705455.286275c1.6415829-1.109376 3.6396273-1.765965 5.7881266-1.765965 2.149506 0 4.147167.657522 5.789085 1.767785l.268892-.28801c-1.688603-1.222527-3.791328-1.94652-6.057498-1.94652z" opacity=".1"/></g></svg>

<svg xmlns="http://www.w3.org/2000/svg" width="24" height="24" version="1">
 <defs>
  <clipPath id="clipPath5078" clipPathUnits="userSpaceOnUse">
   <path style="fill:#2095f2" d="m 160,247 c -7.9134,0 -15.037,2.8117 -20.945,7.1718 l 20.94,22.82 20.78,-22.9 c -5.88,-4.31 -12.93,-7.09 -20.78,-7.09 z"/>
  </clipPath>
  <filter id="filter5060" style="color-interpolation-filters:sRGB" width="1.205" height="1.288" x="-.1" y="-.14">
   <feGaussianBlur stdDeviation="1.443"/>
  </filter>
  <clipPath id="clipPath5085" clipPathUnits="userSpaceOnUse">
   <path style="fill:#2095f2" d="m 160,247 c -7.9134,0 -15.037,2.8117 -20.945,7.1718 l 20.94,22.82 20.78,-22.9 c -5.88,-4.31 -12.93,-7.09 -20.78,-7.09 z"/>
  </clipPath>
  <filter id="filter5064" style="color-interpolation-filters:sRGB" width="1.274" height="1.385" x="-.14" y="-.19">
   <feGaussianBlur stdDeviation="1.443"/>
  </filter>
 </defs>
 <path style="opacity:0.2" d="M 12.039111,5.500094 C 8.2461536,5.500094 4.8317532,6.8125707 2,8.8478267 L 12.039111,19.5 21.999616,8.8100166 C 19.178887,6.7972132 15.80264,5.5001874 12.039111,5.5001874 Z"/>
 <path style="fill:#4f4f4f" d="M 12.039111,5 C 8.2461536,5 4.8317532,6.3124767 2,8.3477327 L 12.039111,18.999906 21.999616,8.3099226 C 19.178887,6.2971192 15.80264,5.0000934 12.039111,5.0000934 Z"/>
 <path style="opacity:0.2;filter:url(#filter5060)" d="m 159.9,252.99 c -6.3037,0 -12.154,2.0674 -16.853,5.5589 l 16.941,18.441 16.765,-18.441 c -4.71,-3.49 -10.56,-5.56 -16.86,-5.56 z" clip-path="url(#clipPath5078)" transform="matrix(0.47930826,0,0,0.46679113,-64.641583,-110.29844)"/>
 <path style="fill:#797979" d="m 11.999808,7.7969192 c -3.0214152,0 -5.8255123,0.9650439 -8.0777818,2.5948448 L 12.041987,18.99986 20.07759,10.391298 C 17.825321,8.7617298 15.021367,7.7968725 11.999808,7.7968725 Z"/>
 <path style="opacity:0.2;filter:url(#filter5064)" d="m 159.9,258.99 c -4.7278,0 -9.1156,1.5505 -12.64,4.1692 l 12.706,13.831 12.574,-13.831 c -3.524,-2.6186 -7.9119,-4.1692 -12.64,-4.1692 z" clip-path="url(#clipPath5085)" transform="matrix(0.47930826,0,0,0.46679113,-64.641583,-110.29844)"/>
 <path style="fill:#cccccc" d="m 11.999808,10.597666 c -2.2660733,0 -4.3691821,0.72376 -6.0584561,1.946145 L 12.031442,19 18.058264,12.543811 c -1.689082,-1.222525 -3.792286,-1.946052 -6.058456,-1.946052 z"/>
 <path style="opacity:0.1;fill:#ffffff" d="M 12.039111,5 C 8.2461536,5 4.8317532,6.3125234 2,8.3477793 L 2.2696109,8.634053 C 5.0484485,6.7057389 8.3635362,5.4667818 12.039351,5.4667818 c 3.647104,0 6.925525,1.2241131 9.692092,3.1307682 L 21.999856,8.3095398 C 19.178168,6.2972033 15.8024,5.0001775 12.038392,5.0001775 Z"/>
 <path style="opacity:0.1;fill:#ffffff" d="m 12.000287,7.7964523 c -3.0214149,0 -5.8259913,0.9657909 -8.0782608,2.5956387 l 0.2705455,0.286274 C 6.3979169,9.1620872 9.0963745,8.2632808 12.000024,8.2632808 c 2.904847,0 5.602634,0.8997399 7.808411,2.4169042 l 0.268892,-0.288477 C 17.825536,8.7616738 15.022062,7.7958829 12.000503,7.7958829 Z"/>
 <path style="opacity:0.1;fill:#ffffff" d="m 12.000287,10.597199 c -2.266073,0 -4.3696611,0.724133 -6.0589351,1.946472 l 0.2705455,0.286275 c 1.6415829,-1.109376 3.6396273,-1.765965 5.7881266,-1.765965 2.149506,0 4.147167,0.657522 5.789085,1.767785 l 0.268892,-0.28801 c -1.688603,-1.222527 -3.791328,-1.94652 -6.057498,-1.94652 z"/>
</svg>
